check-ins/label-name.svg

<svg xmlns="http://www.w3.org/2000/svg" viewBox="0 0 16 16"><defs><style>.cls-1{fill:#231f20;fill-rule:evenodd}</style></defs><title>label-name</title><g id="Layer_1" data-name="Layer 1"><path class="cls-1" d="M2 9.6H.006l2.747 2.747v-1.989A.756.756 0 0 0 2 9.6z"/><path class="cls-1" d="M13.74 3.651H1.374A1.374 1.374 0 0 0 0 5.024v4.121h2a1.213 1.213 0 0 1 1.21 1.213v1.992h10.53a1.374 1.374 0 0 0 1.374-1.374V5.024a1.374 1.374 0 0 0-1.374-1.373zm-1.551 5.494a.558.558 0 1 1-.558.558.558.558 0 0 1 .558-.558zm.9 2.2a.087.087 0 0 1-.087.087h-1.623a.087.087 0 0 1-.087-.087v-.283a.575.575 0 0 1 .575-.575h.643a.575.575 0 0 1 .575.575zm.44-1.859a.418.418 0 1 1-.418.418.418.418 0 0 1 .414-.416zm.673 1.651a.066.066 0 0 1-.065.065h-.763a.088.088 0 0 1-.088-.088v-.079a.66.66 0 0 0-.154-.424.062.062 0 0 1 .027-.1.431.431 0 0 1 .13-.02h.482a.432.432 0 0 1 .432.432z"/></g></svg>

<svg xmlns="http://www.w3.org/2000/svg" viewBox="0 0 16 16"><defs><style>.cls-1{fill:#231f20;fill-rule:evenodd;}</style></defs><title>label-name</title><g id="Layer_1" data-name="Layer 1"><path class="cls-1" d="M2,9.6H.006l2.747,2.747V10.358A.756.756,0,0,0,2,9.6Z"/><path class="cls-1" d="M13.74,3.651H1.374A1.374,1.374,0,0,0,0,5.024V9.145H2A1.213,1.213,0,0,1,3.21,10.358v1.992H13.74a1.374,1.374,0,0,0,1.374-1.374V5.024A1.374,1.374,0,0,0,13.74,3.651ZM12.189,9.145a.558.558,0,1,1-.558.558A.558.558,0,0,1,12.189,9.145Zm.9,2.2a.087.087,0,0,1-.087.087H11.379a.087.087,0,0,1-.087-.087v-.283a.575.575,0,0,1,.575-.575h.643a.575.575,0,0,1,.575.575Zm.44-1.859a.418.418,0,1,1-.418.418A.418.418,0,0,1,13.525,9.488Zm.673,1.651a.066.066,0,0,1-.065.065h-.763a.088.088,0,0,1-.088-.088v-.079a.66.66,0,0,0-.154-.424.062.062,0,0,1,.027-.1.431.431,0,0,1,.13-.02h.482a.432.432,0,0,1,.432.432Z"/></g></svg>
